X: 122
M:2/4
L:1/16
K:G
uD2|G2BG dGBG|ABcd egdB|G2BG dGBG|AdFd (Ad)(Fd)|
u(ef)|gfga gede|gabg ageg|{b}agab agef|gabg e2df|
gfga gede|eabg agef|{a}gfga gedB|GAFA G2:|


